!! 00000] TT[WS
!!!OTL: Tudi fa
!!!ARE: Asia, China, Shanxi Zouquan
!! Ethnic Group: Han
!! WII, 260 (1)
!!!SCT: J0788
!!!YEM: Copyright 1995, estate of Helmut Schaffrath.
**kern
*ICvox
*Ivox
*M2/4
*k[f#]
*G:
{8dd
8gg
8ee
8dd
=1
8dd
8g
4a
=2
8dd
16dd
16ee
8dd
8g
=3
4a
4r}
=4
{8.a
16b
8b
8dd
=5
8b
8a
8g
8f#
=6
8e
8g
4a
=7
8.b
16g
8f#
8e
=8
2d}
==
!!!AGN: Xiaodiao. XÅshi, Xinminge
!!!ONB: ESAC (Essen Associative Code) Database: CHINA
!!!AMT: simple duple
!!!AIN: vox
!!!EED: Helmut Schaffrath
!!!EEV: 1.0
*-
